X:3136
T: Karins vals
R: Vals
C: Karin Arén
Z: Karin Arén
M: 3/4
L: 1/8
K: Gm
D2 |: G2 G^F GA | B2 {c}BA Bc | d2 dg ^fg | d4 d2 | 
ce ce ce | Bd Bd BG | A3 B A=E | ^F4 D2 |
G2 G^F GA | B2 {c}BA Bc | d2 dg ^fg | d4 b2 |
a3 b a^f | g2 dB G2 | A3 B A^F |1 G4 D2 :|2 G4 d2 |:
b4 g2 | a4 ^f2 | g2 ga g=e | f4 d2 |
gd BG Bd | c2 A2 ^F2 | G3 A G^F |1 G4 d2 :|2 G4 z2 |] 
(:musicend:)



(:music:)
